static/img/kroki/52e44e02ae7c3eef4ec2cc51dd7c7b6f.svg

<?xml version="1.0" encoding="us-ascii" standalone="no"?><svg xmlns="http://www.w3.org/2000/svg" xmlns:xlink="http://www.w3.org/1999/xlink" contentStyleType="text/css" height="645px" preserveAspectRatio="none" style="width:749px;height:645px;" version="1.1" viewBox="0 0 749 645" width="749px" zoomAndPan="magnify"><defs/><g><!--class aws_account--><g id="elem_aws_account"><rect codeLine="23" fill="#3D176E" height="39.7891" id="aws_account" rx="2.5" ry="2.5" style="stroke:#000D19;stroke-width:0.5;" width="149" x="7" y="599.55"/><ellipse cx="22" cy="619.4445" fill="#ADD1B2" rx="11" ry="11" style="stroke:#181818;stroke-width:1.0;"/><path d="M24.9688,625.0852 Q24.3906,625.382 23.75,625.5227 Q23.1094,625.6789 22.4063,625.6789 Q19.9063,625.6789 18.5781,624.0383 Q17.2656,622.382 17.2656,619.257 Q17.2656,616.132 18.5781,614.4758 Q19.9063,612.8195 22.4063,612.8195 Q23.1094,612.8195 23.75,612.9758 Q24.4063,613.132 24.9688,613.4289 L24.9688,616.1477 Q24.3438,615.5695 23.75,615.3039 Q23.1563,615.0227 22.5313,615.0227 Q21.1875,615.0227 20.5,616.1008 Q19.8125,617.1633 19.8125,619.257 Q19.8125,621.3508 20.5,622.4289 Q21.1875,623.4914 22.5313,623.4914 Q23.1563,623.4914 23.75,623.2258 Q24.3438,622.9445 24.9688,622.3664 L24.9688,625.0852 Z " fill="#000000"/><text fill="#D9B8FF" font-family="Helvetica" font-size="17" lengthAdjust="spacing" textLength="107" x="41" y="625.3298">aws_account</text></g><!--class aws_iam_role--><g id="elem_aws_iam_role"><rect codeLine="26" fill="#3D176E" height="39.7891" id="aws_iam_role" rx="2.5" ry="2.5" style="stroke:#000D19;stroke-width:0.5;" width="157" x="191" y="599.55"/><ellipse cx="206" cy="619.4445" fill="#ADD1B2" rx="11" ry="11" style="stroke:#181818;stroke-width:1.0;"/><path d="M208.9688,625.0852 Q208.3906,625.382 207.75,625.5227 Q207.1094,625.6789 206.4063,625.6789 Q203.9063,625.6789 202.5781,624.0383 Q201.2656,622.382 201.2656,619.257 Q201.2656,616.132 202.5781,614.4758 Q203.9063,612.8195 206.4063,612.8195 Q207.1094,612.8195 207.75,612.9758 Q208.4063,613.132 208.9688,613.4289 L208.9688,616.1477 Q208.3438,615.5695 207.75,615.3039 Q207.1563,615.0227 206.5313,615.0227 Q205.1875,615.0227 204.5,616.1008 Q203.8125,617.1633 203.8125,619.257 Q203.8125,621.3508 204.5,622.4289 Q205.1875,623.4914 206.5313,623.4914 Q207.1563,623.4914 207.75,623.2258 Q208.3438,622.9445 208.9688,622.3664 L208.9688,625.0852 Z " fill="#000000"/><text fill="#D9B8FF" font-family="Helvetica" font-size="17" lengthAdjust="spacing" textLength="115" x="225" y="625.3298">aws_iam_role</text></g><!--class aws_iam_user--><g id="elem_aws_iam_user"><rect codeLine="29" fill="#3D176E" height="39.7891" id="aws_iam_user" rx="2.5" ry="2.5" style="stroke:#000D19;stroke-width:0.5;" width="161" x="383" y="599.55"/><ellipse cx="398" cy="619.4445" fill="#ADD1B2" rx="11" ry="11" style="stroke:#181818;stroke-width:1.0;"/><path d="M400.9688,625.0852 Q400.3906,625.382 399.75,625.5227 Q399.1094,625.6789 398.4063,625.6789 Q395.9063,625.6789 394.5781,624.0383 Q393.2656,622.382 393.2656,619.257 Q393.2656,616.132 394.5781,614.4758 Q395.9063,612.8195 398.4063,612.8195 Q399.1094,612.8195 399.75,612.9758 Q400.4063,613.132 400.9688,613.4289 L400.9688,616.1477 Q400.3438,615.5695 399.75,615.3039 Q399.1563,615.0227 398.5313,615.0227 Q397.1875,615.0227 396.5,616.1008 Q395.8125,617.1633 395.8125,619.257 Q395.8125,621.3508 396.5,622.4289 Q397.1875,623.4914 398.5313,623.4914 Q399.1563,623.4914 399.75,623.2258 Q400.3438,622.9445 400.9688,622.3664 L400.9688,625.0852 Z " fill="#000000"/><text fill="#D9B8FF" font-family="Helvetica" font-size="17" lengthAdjust="spacing" textLength="119" x="417" y="625.3298">aws_iam_user</text></g><!--class aws_root_user--><g id="elem_aws_root_user"><rect codeLine="32" fill="#3D176E" height="39.7891" id="aws_root_user" rx="2.5" ry="2.5" style="stroke:#000D19;stroke-width:0.5;" width="163" x="579" y="599.55"/><ellipse cx="594" cy="619.4445" fill="#ADD1B2" rx="11" ry="11" style="stroke:#181818;stroke-width:1.0;"/><path d="M596.9688,625.0852 Q596.3906,625.382 595.75,625.5227 Q595.1094,625.6789 594.4063,625.6789 Q591.9063,625.6789 590.5781,624.0383 Q589.2656,622.382 589.2656,619.257 Q589.2656,616.132 590.5781,614.4758 Q591.9063,612.8195 594.4063,612.8195 Q595.1094,612.8195 595.75,612.9758 Q596.4063,613.132 596.9688,613.4289 L596.9688,616.1477 Q596.3438,615.5695 595.75,615.3039 Q595.1563,615.0227 594.5313,615.0227 Q593.1875,615.0227 592.5,616.1008 Q591.8125,617.1633 591.8125,619.257 Q591.8125,621.3508 592.5,622.4289 Q593.1875,623.4914 594.5313,623.4914 Q595.1563,623.4914 595.75,623.2258 Q596.3438,622.9445 596.9688,622.3664 L596.9688,625.0852 Z " fill="#000000"/><text fill="#D9B8FF" font-family="Helvetica" font-size="17" lengthAdjust="spacing" textLength="121" x="613" y="625.3298">aws_root_user</text></g><!--class iam_principal--><g id="elem_iam_principal"><rect codeLine="35" fill="#3D176E" height="39.7891" id="iam_principal" rx="2.5" ry="2.5" style="stroke:#000D19;stroke-width:0.5;" width="154" x="289.5" y="438.76"/><ellipse cx="304.5" cy="458.6545" fill="#ADD1B2" rx="11" ry="11" style="stroke:#181818;stroke-width:1.0;"/><path d="M307.4688,464.2952 Q306.8906,464.592 306.25,464.7327 Q305.6094,464.8889 304.9063,464.8889 Q302.4063,464.8889 301.0781,463.2483 Q299.7656,461.592 299.7656,458.467 Q299.7656,455.342 301.0781,453.6858 Q302.4063,452.0295 304.9063,452.0295 Q305.6094,452.0295 306.25,452.1858 Q306.9063,452.342 307.4688,452.6389 L307.4688,455.3577 Q306.8438,454.7795 306.25,454.5139 Q305.6563,454.2327 305.0313,454.2327 Q303.6875,454.2327 303,455.3108 Q302.3125,456.3733 302.3125,458.467 Q302.3125,460.5608 303,461.6389 Q303.6875,462.7014 305.0313,462.7014 Q305.6563,462.7014 306.25,462.4358 Q306.8438,462.1545 307.4688,461.5764 L307.4688,464.2952 Z " fill="#000000"/><text fill="#D9B8FF" font-family="Helvetica" font-size="17" lengthAdjust="spacing" textLength="112" x="323.5" y="464.5398">iam_principal</text></g><!--class resource--><g id="elem_resource"><rect codeLine="38" fill="#3D176E" height="310.7578" id="resource" rx="2.5" ry="2.5" style="stroke:#000D19;stroke-width:0.5;" width="227" x="253" y="7"/><ellipse cx="321.75" cy="26.8945" fill="#ADD1B2" rx="11" ry="11" style="stroke:#181818;stroke-width:1.0;"/><path d="M324.7188,32.5352 Q324.1406,32.832 323.5,32.9727 Q322.8594,33.1289 322.1563,33.1289 Q319.6563,33.1289 318.3281,31.4883 Q317.0156,29.832 317.0156,26.707 Q317.0156,23.582 318.3281,21.9258 Q319.6563,20.2695 322.1563,20.2695 Q322.8594,20.2695 323.5,20.4258 Q324.1563,20.582 324.7188,20.8789 L324.7188,23.5977 Q324.0938,23.0195 323.5,22.7539 Q322.9063,22.4727 322.2813,22.4727 Q320.9375,22.4727 320.25,23.5508 Q319.5625,24.6133 319.5625,26.707 Q319.5625,28.8008 320.25,29.8789 Q320.9375,30.9414 322.2813,30.9414 Q322.9063,30.9414 323.5,30.6758 Q324.0938,30.3945 324.7188,29.8164 L324.7188,32.5352 Z " fill="#000000"/><text fill="#D9B8FF" font-family="Helvetica" font-size="17" lengthAdjust="spacing" textLength="71" x="347.25" y="32.7798">resource</text><line style="stroke:#000D19;stroke-width:0.5;" x1="254" x2="479" y1="46.7891" y2="46.7891"/><text fill="#D9B8FF" font-family="sans-serif" font-size="14" font-weight="bold" lengthAdjust="spacing" textLength="29" x="264" y="68.7842">age</text><text fill="#D9B8FF" font-family="sans-serif" font-size="14" lengthAdjust="spacing" textLength="66" x="293" y="68.7842">: duration</text><text fill="#D9B8FF" font-family="sans-serif" font-size="14" font-weight="bold" lengthAdjust="spacing" textLength="43" x="264" y="95.0811">atime</text><text fill="#D9B8FF" font-family="sans-serif" font-size="14" lengthAdjust="spacing" textLength="70" x="307" y="95.0811">: datetime</text><text fill="#D9B8FF" font-family="sans-serif" font-size="14" font-weight="bold" lengthAdjust="spacing" textLength="43" x="264" y="121.3779">ctime</text><text fill="#D9B8FF" font-family="sans-serif" font-size="14" lengthAdjust="spacing" textLength="70" x="307" y="121.3779">: datetime</text><text fill="#D9B8FF" font-family="sans-serif" font-size="14" font-weight="bold" lengthAdjust="spacing" textLength="14" x="264" y="147.6748">id</text><text fill="#D9B8FF" font-family="sans-serif" font-size="14" lengthAdjust="spacing" textLength="48" x="278" y="147.6748">: string</text><text fill="#D9B8FF" font-family="sans-serif" font-size="14" font-weight="bold" lengthAdjust="spacing" textLength="33" x="264" y="173.9717">kind</text><text fill="#D9B8FF" font-family="sans-serif" font-size="14" lengthAdjust="spacing" textLength="48" x="297" y="173.9717">: string</text><text fill="#D9B8FF" font-family="sans-serif" font-size="14" font-weight="bold" lengthAdjust="spacing" textLength="90" x="264" y="200.2686">last_access</text><text fill="#D9B8FF" font-family="sans-serif" font-size="14" lengthAdjust="spacing" textLength="66" x="354" y="200.2686">: duration</text><text fill="#D9B8FF" font-family="sans-serif" font-size="14" font-weight="bold" lengthAdjust="spacing" textLength="90" x="264" y="226.5654">last_update</text><text fill="#D9B8FF" font-family="sans-serif" font-size="14" lengthAdjust="spacing" textLength="66" x="354" y="226.5654">: duration</text><text fill="#D9B8FF" font-family="sans-serif" font-size="14" font-weight="bold" lengthAdjust="spacing" textLength="48" x="264" y="252.8623">mtime</text><text fill="#D9B8FF" font-family="sans-serif" font-size="14" lengthAdjust="spacing" textLength="70" x="312" y="252.8623">: datetime</text><text fill="#D9B8FF" font-family="sans-serif" font-size="14" font-weight="bold" lengthAdjust="spacing" textLength="43" x="264" y="279.1592">name</text><text fill="#D9B8FF" font-family="sans-serif" font-size="14" lengthAdjust="spacing" textLength="48" x="307" y="279.1592">: string</text><text fill="#D9B8FF" font-family="sans-serif" font-size="14" font-weight="bold" lengthAdjust="spacing" textLength="34" x="264" y="305.4561">tags</text><text fill="#D9B8FF" font-family="sans-serif" font-size="14" lengthAdjust="spacing" textLength="171" x="298" y="305.4561">: dictionary[string, string]</text></g><!--reverse link iam_principal to aws_account--><g id="link_iam_principal_aws_account"><path codeLine="50" d="M316.1156,487.7303 C261.2256,518.3103 170.66,568.77 115.92,599.27 " fill="none" id="iam_principal-backto-aws_account" style="stroke:#FFAF37;stroke-width:2.0;"/><polygon fill="none" points="331.84,478.97,313.1955,482.4888,319.0357,492.9718,331.84,478.97" style="stroke:#FFAF37;stroke-width:2.0;"/></g><!--reverse link iam_principal to aws_iam_role--><g id="link_iam_principal_aws_iam_role"><path codeLine="51" d="M345.418,494.1716 C326.778,524.6916 299.91,568.66 281.24,599.22 " fill="none" id="iam_principal-backto-aws_iam_role" style="stroke:#FFAF37;stroke-width:2.0;"/><polygon fill="none" points="354.8,478.81,340.2975,491.0442,350.5385,497.2989,354.8,478.81" style="stroke:#FFAF37;stroke-width:2.0;"/></g><!--reverse link iam_principal to aws_iam_user--><g id="link_iam_principal_aws_iam_user"><path codeLine="52" d="M387.582,494.1716 C406.222,524.6916 433.09,568.66 451.76,599.22 " fill="none" id="iam_principal-backto-aws_iam_user" style="stroke:#FFAF37;stroke-width:2.0;"/><polygon fill="none" points="378.2,478.81,382.4615,497.2989,392.7025,491.0442,378.2,478.81" style="stroke:#FFAF37;stroke-width:2.0;"/></g><!--reverse link iam_principal to aws_root_user--><g id="link_iam_principal_aws_root_user"><path codeLine="53" d="M418.0977,487.5238 C474.7177,518.1038 568.53,568.77 624.99,599.27 " fill="none" id="iam_principal-backto-aws_root_user" style="stroke:#FFAF37;stroke-width:2.0;"/><polygon fill="none" points="402.26,478.97,415.2464,492.803,420.949,482.2446,402.26,478.97" style="stroke:#FFAF37;stroke-width:2.0;"/></g><!--reverse link resource to iam_principal--><g id="link_resource_iam_principal"><path codeLine="54" d="M366.5,335.85 C366.5,384.14 366.5,413.37 366.5,438.68 " fill="none" id="resource-backto-iam_principal" style="stroke:#FFAF37;stroke-width:2.0;"/><polygon fill="none" points="366.5,317.85,360.5,335.85,372.5,335.85,366.5,317.85" style="stroke:#FFAF37;stroke-width:2.0;"/></g><!--SRC=[XPDFJy904CNl_HIRS2EIW4G1umL9Z5w84M_6c65tMZQqkytiL89_lhkxLidI0jwwx_rsvisqNMc50ekIjwB0Oeda4hVMfWI2Gao9x6PcSqkYawQG3aTDyzOQ_XUOGu7Y3lCtP2sXIJojj5mRT4wSHzODo7L6jZAgBiy4ndaB3KVKB0VdfioabnLZ54PDbkCqRPBDefsX6emkiOLPKaY_IB_VLuD94_ctrScvTyH2lwCOn4kRMyPMp5QB7-faoa148Lk3_lb7Cpw0KjfauYBI7kjCP93szCKAbDq4EeNSnMqS8w7bROcprbGu6QjqT12-FmOdCgnEmCQzWfJUP_6H95-HhA5u9PlZ8RroFdX39skvPGIu96saBY6F3K9dAvAXUhSB6NQxLq9L1Aoj2GhhejQ0CJnxJHxGj0g2yz-joVpHRs1VyBqu3EZ_YaQ77wSgGws6KnpeOw2MTeKPihgYbk4QqFQvziv-cHS_wlxqrv-zNY_U-57_R_KdWR3gey3kPIIxHTVcteNa6m00]--></g></svg>

<svg xmlns="http://www.w3.org/2000/svg" width="749" height="645" viewBox="0 0 749 645"><rect width="149" height="39.789" x="7" y="599.55" fill="#3D176E" rx="2.5" ry="2.5" style="stroke:#000d19;stroke-width:.5"/><circle cx="22" cy="619.444" r="11" fill="#ADD1B2" style="stroke:#181818;stroke-width:1"/><path d="M24.969 625.085q-.578.297-1.219.438-.64.156-1.344.156-2.5 0-3.828-1.64-1.312-1.657-1.312-4.782t1.312-4.781q1.328-1.657 3.828-1.657.703 0 1.344.157.656.156 1.219.453v2.719q-.625-.579-1.219-.844-.594-.281-1.219-.281-1.343 0-2.031 1.078-.687 1.062-.687 3.156t.687 3.172q.688 1.062 2.031 1.062.625 0 1.219-.265.594-.282 1.219-.86z"/><text x="41" y="625.33" fill="#D9B8FF" font-family="Helvetica" font-size="17" textLength="107">aws_account</text><rect width="157" height="39.789" x="191" y="599.55" fill="#3D176E" rx="2.5" ry="2.5" style="stroke:#000d19;stroke-width:.5"/><circle cx="206" cy="619.444" r="11" fill="#ADD1B2" style="stroke:#181818;stroke-width:1"/><path d="M208.969 625.085q-.578.297-1.219.438-.64.156-1.344.156-2.5 0-3.828-1.64-1.312-1.657-1.312-4.782t1.312-4.781q1.328-1.657 3.828-1.657.703 0 1.344.157.656.156 1.219.453v2.719q-.625-.579-1.219-.844-.594-.281-1.219-.281-1.344 0-2.031 1.078-.687 1.062-.687 3.156t.687 3.172q.688 1.062 2.031 1.062.625 0 1.219-.265.594-.282 1.219-.86z"/><text x="225" y="625.33" fill="#D9B8FF" font-family="Helvetica" font-size="17" textLength="115">aws_iam_role</text><rect width="161" height="39.789" x="383" y="599.55" fill="#3D176E" rx="2.5" ry="2.5" style="stroke:#000d19;stroke-width:.5"/><circle cx="398" cy="619.444" r="11" fill="#ADD1B2" style="stroke:#181818;stroke-width:1"/><path d="M400.969 625.085q-.578.297-1.219.438-.64.156-1.344.156-2.5 0-3.828-1.64-1.312-1.657-1.312-4.782t1.312-4.781q1.328-1.657 3.828-1.657.703 0 1.344.157.656.156 1.219.453v2.719q-.625-.579-1.219-.844-.594-.281-1.219-.281-1.344 0-2.031 1.078-.687 1.062-.687 3.156t.687 3.172q.688 1.062 2.031 1.062.625 0 1.219-.265.594-.282 1.219-.86z"/><text x="417" y="625.33" fill="#D9B8FF" font-family="Helvetica" font-size="17" textLength="119">aws_iam_user</text><rect width="163" height="39.789" x="579" y="599.55" fill="#3D176E" rx="2.5" ry="2.5" style="stroke:#000d19;stroke-width:.5"/><circle cx="594" cy="619.444" r="11" fill="#ADD1B2" style="stroke:#181818;stroke-width:1"/><path d="M596.969 625.085q-.578.297-1.219.438-.64.156-1.344.156-2.5 0-3.828-1.64-1.312-1.657-1.312-4.782t1.312-4.781q1.328-1.657 3.828-1.657.703 0 1.344.157.656.156 1.219.453v2.719q-.625-.579-1.219-.844-.594-.281-1.219-.281-1.343 0-2.031 1.078-.687 1.062-.687 3.156t.687 3.172q.688 1.062 2.031 1.062.625 0 1.219-.265.594-.282 1.219-.86z"/><text x="613" y="625.33" fill="#D9B8FF" font-family="Helvetica" font-size="17" textLength="121">aws_root_user</text><rect width="154" height="39.789" x="289.5" y="438.76" fill="#3D176E" rx="2.5" ry="2.5" style="stroke:#000d19;stroke-width:.5"/><circle cx="304.5" cy="458.654" r="11" fill="#ADD1B2" style="stroke:#181818;stroke-width:1"/><path d="M307.469 464.295q-.578.297-1.219.438-.64.156-1.344.156-2.5 0-3.828-1.64-1.312-1.657-1.312-4.782t1.312-4.781q1.328-1.656 3.828-1.656.703 0 1.344.156.656.156 1.219.453v2.719q-.625-.579-1.219-.844-.594-.281-1.219-.281-1.344 0-2.031 1.078-.687 1.062-.687 3.156t.687 3.172q.688 1.062 2.031 1.062.625 0 1.219-.265.594-.281 1.219-.86z"/><text x="323.5" y="464.54" fill="#D9B8FF" font-family="Helvetica" font-size="17" textLength="112">iam_principal</text><rect width="227" height="310.758" x="253" y="7" fill="#3D176E" rx="2.5" ry="2.5" style="stroke:#000d19;stroke-width:.5"/><circle cx="321.75" cy="26.895" r="11" fill="#ADD1B2" style="stroke:#181818;stroke-width:1"/><path d="M324.719 32.535q-.578.297-1.219.438-.64.156-1.344.156-2.5 0-3.828-1.64-1.312-1.657-1.312-4.782t1.312-4.781q1.328-1.656 3.828-1.656.703 0 1.344.156.656.156 1.219.453v2.719q-.625-.578-1.219-.844-.594-.281-1.219-.281-1.344 0-2.031 1.078-.687 1.062-.687 3.156t.687 3.172q.688 1.062 2.031 1.062.625 0 1.219-.265.594-.281 1.219-.86z"/><text x="347.25" y="32.78" fill="#D9B8FF" font-family="Helvetica" font-size="17" textLength="71">resource</text><path d="M254 46.789h225" style="stroke:#000d19;stroke-width:.5"/><text x="264" y="68.784" fill="#D9B8FF" font-family="sans-serif" font-size="14" font-weight="bold" textLength="29">age</text><text x="293" y="68.784" fill="#D9B8FF" font-family="sans-serif" font-size="14" textLength="66">: duration</text><text x="264" y="95.081" fill="#D9B8FF" font-family="sans-serif" font-size="14" font-weight="bold" textLength="43">atime</text><text x="307" y="95.081" fill="#D9B8FF" font-family="sans-serif" font-size="14" textLength="70">: datetime</text><text x="264" y="121.378" fill="#D9B8FF" font-family="sans-serif" font-size="14" font-weight="bold" textLength="43">ctime</text><text x="307" y="121.378" fill="#D9B8FF" font-family="sans-serif" font-size="14" textLength="70">: datetime</text><text x="264" y="147.675" fill="#D9B8FF" font-family="sans-serif" font-size="14" font-weight="bold" textLength="14">id</text><text x="278" y="147.675" fill="#D9B8FF" font-family="sans-serif" font-size="14" textLength="48">: string</text><text x="264" y="173.972" fill="#D9B8FF" font-family="sans-serif" font-size="14" font-weight="bold" textLength="33">kind</text><text x="297" y="173.972" fill="#D9B8FF" font-family="sans-serif" font-size="14" textLength="48">: string</text><text x="264" y="200.269" fill="#D9B8FF" font-family="sans-serif" font-size="14" font-weight="bold" textLength="90">last_access</text><text x="354" y="200.269" fill="#D9B8FF" font-family="sans-serif" font-size="14" textLength="66">: duration</text><text x="264" y="226.565" fill="#D9B8FF" font-family="sans-serif" font-size="14" font-weight="bold" textLength="90">last_update</text><text x="354" y="226.565" fill="#D9B8FF" font-family="sans-serif" font-size="14" textLength="66">: duration</text><text x="264" y="252.862" fill="#D9B8FF" font-family="sans-serif" font-size="14" font-weight="bold" textLength="48">mtime</text><text x="312" y="252.862" fill="#D9B8FF" font-family="sans-serif" font-size="14" textLength="70">: datetime</text><text x="264" y="279.159" fill="#D9B8FF" font-family="sans-serif" font-size="14" font-weight="bold" textLength="43">name</text><text x="307" y="279.159" fill="#D9B8FF" font-family="sans-serif" font-size="14" textLength="48">: string</text><text x="264" y="305.456" fill="#D9B8FF" font-family="sans-serif" font-size="14" font-weight="bold" textLength="34">tags</text><text x="298" y="305.456" fill="#D9B8FF" font-family="sans-serif" font-size="14" textLength="171">: dictionary[string, string]</text><g fill="none"><path d="M316.116 487.73c-54.89 30.58-145.456 81.04-200.196 111.54" style="stroke:#ffaf37;stroke-width:2"/><path d="m331.84 478.97-18.644 3.519 5.84 10.483z" style="stroke:#ffaf37;stroke-width:2"/></g><path fill="none" d="M345.418 494.172c-18.64 30.52-45.508 74.488-64.178 105.048m73.56-120.41-14.502 12.234 10.24 6.255zm32.782 15.362c18.64 30.52 45.508 74.488 64.178 105.048M378.2 478.81l4.262 18.489 10.24-6.255zm39.898 8.714c56.62 30.58 150.432 81.246 206.892 111.746m-222.73-120.3 12.986 13.833 5.703-10.558zM366.5 335.85v102.83m0-120.83-6 18h12z" style="stroke:#ffaf37;stroke-width:2"/></svg>
